img/service__06.svg

<svg width="36" height="31" viewBox="0 0 36 31" fill="none" xmlns="http://www.w3.org/2000/svg">
<path d="M35.0972 4.56006H33.0098V1.49854C33.0098 1.11432 32.6984 0.802734 32.314 0.802734H22.1577C20.4845 0.802734 18.9511 1.59312 17.9805 2.88992C17.0098 1.59312 15.4765 0.802734 13.8033 0.802734H3.64697C3.26254 0.802734 2.95117 1.11432 2.95117 1.49854V4.56006H0.86377C0.47934 4.56006 0.167969 4.87165 0.167969 5.25586V30.1655C0.167969 30.55 0.47934 30.8613 0.86377 30.8613H24.8919C25.2764 30.8613 25.5877 30.55 25.5877 30.1655C25.5877 29.7813 25.2764 29.4697 24.8919 29.4697H18.6178C18.6186 29.4678 18.6195 29.4656 18.6202 29.4634C18.621 29.4621 18.6219 29.4608 18.6223 29.4595C19.2196 28.0288 20.6073 27.104 22.1577 27.104H32.314C32.6984 27.104 33.0098 26.7926 33.0098 26.4082V5.95166H34.4014V29.4697H30.5806C30.1961 29.4697 29.8848 29.7813 29.8848 30.1655C29.8848 30.55 30.1961 30.8613 30.5806 30.8613H35.0972C35.4816 30.8613 35.793 30.55 35.793 30.1655V5.25586C35.793 4.87165 35.4816 4.56006 35.0972 4.56006ZM4.34277 2.19434H13.8033C15.3086 2.19434 16.6606 3.06604 17.2847 4.42655V27.0388C16.3475 26.2003 15.1181 25.7124 13.8033 25.7124H4.34277V2.19434ZM1.55957 5.95166H2.95117V26.4082C2.95117 26.7926 3.26254 27.104 3.64697 27.104H13.8033C15.3536 27.104 16.7413 28.0288 17.3386 29.4595C17.339 29.4608 17.3399 29.4621 17.3408 29.4634C17.3414 29.4656 17.3423 29.4678 17.3432 29.4697H1.55957V5.95166ZM31.6182 25.7124H22.1577C20.8428 25.7124 19.6134 26.2003 18.6763 27.0388V4.42655C19.3003 3.06604 20.6523 2.19434 22.1577 2.19434H31.6182V25.7124Z" fill="white"/>
</svg>

<svg width="36" height="31" fill="none" xmlns="http://www.w3.org/2000/svg"><path d="M35.097 4.56H33.01V1.5a.696.696 0 00-.696-.696H22.158c-1.674 0-3.207.79-4.178 2.087A5.207 5.207 0 0013.803.803H3.647a.696.696 0 00-.696.696V4.56H.864a.696.696 0 00-.696.696v24.91c0 .384.311.695.696.695h24.028a.696.696 0 100-1.391h-6.274l.002-.007.002-.004a3.822 3.822 0 013.536-2.355h10.156a.696.696 0 00.696-.696V5.952h1.39V29.47h-3.82a.696.696 0 100 1.391h4.516a.696.696 0 00.696-.695V5.256a.696.696 0 00-.696-.696zM4.343 2.194h9.46a3.82 3.82 0 013.482 2.233v22.612a5.211 5.211 0 00-3.482-1.327h-9.46V2.194zM1.56 5.952h1.39v20.456c0 .385.312.696.696.696h10.156a3.822 3.822 0 013.54 2.366H1.56V5.952zm30.058 19.76h-9.46a5.211 5.211 0 00-3.482 1.327V4.427a3.82 3.82 0 013.482-2.233h9.46v23.518z" fill="#fff"/></svg>
